X: 10
T: Star Of Munster, The
Z: Lucy Rietmann
S: https://thesession.org/tunes/197#setting26184
R: reel
M: 4/4
L: 1/8
K: Gmaj
|BAGB AGFD|GBAG =FDCA,|G,2 GF GABc|dcde =fdcA|
B2GB AGFD|GBAG =FDCA,|G,2 GF GABc|(3dcB cA BGG2|
BG (3GGG AF (3FFF|GBAG =FDC2|DGGF GABc|dcde =fdcA|
B2cA BAGF|GBAG =FDCA,|G,2 GF GABc|(3dcB cA BGG2|
|:gfga gd (3ddd|gdad gd (3ddd|=f2ge fc (3ccc|=fgag fdcA|
gfga gd (3ddd|gdad gdde|=f4 g4|a3g =fdcA:|

